apps/explorer/src/assets/img/pie.svg

<svg fill="none" height="18" viewBox="0 0 18 18" width="18" xmlns="http://www.w3.org/2000/svg"><path clip-rule="evenodd" d="m9 .5c-.26522 0-.51957.105357-.70711.292893-.18753.187537-.29289.441887-.29289.707107v7.5c0 .55229.44772 1 1 1h7.5c.5523 0 1-.44771 1-1 0-1.11624-.2199-2.22154-.647-3.25281-.4272-1.03127-1.0533-1.9683-1.8426-2.7576s-1.7263-1.4154-2.7576-1.84257c-1.0313-.427161-2.1366-.64702-3.2528-.64702zm1 7.5v-5.42262c.5095.07933 1.0089.21918 1.4874.4174.7887.32666 1.5052.80545 2.1088 1.40903s1.0824 1.32013 1.409 2.10875c.1982.47856.3381.97797.4174 1.48744zm-3.60004-4.96096c.50618-.22089.73746-.81031.51657-1.31649-.22089-.50619-.8103-.737468-1.31649-.51658-1.27255.55532-2.3897 1.41392-3.25376 2.50073-.86407 1.08681-1.448754 2.36874-1.702934 3.73371-.254181 1.36498-.170121 2.77139.244831 4.09639.414953 1.325 1.148163 2.5282 2.135523 3.5043.98737.9762 2.19883 1.6956 3.52846 2.0954 1.32964.3998 2.73697.4678 4.09894.198 1.362-.2697 2.6372-.869 3.714-1.7454 1.0769-.8764 1.9227-2.0033 2.4634-3.2821.2151-.5087-.0229-1.0954-.5315-1.3105-.5087-.2151-1.0954.0229-1.3105.5315-.4136.978-1.0603 1.8397-1.8838 2.5099s-1.7986 1.1285-2.8402 1.3347c-1.04148.2063-2.11767.1543-3.13445-.1514s-1.94319-.8559-2.69823-1.6023c-.75504-.7465-1.31573-1.6666-1.63305-2.6798-.31732-1.01322-.3816-2.08874-.18722-3.13255.19437-1.0438.64148-2.0241 1.30224-2.85519.66075-.83109 1.51504-1.48766 2.48817-1.91232z" fill="#c5d9ed" fill-rule="evenodd"/></svg>

<svg width="18" height="18" viewBox="0 0 18 18" fill="none" xmlns="http://www.w3.org/2000/svg">
<path fill-rule="evenodd" clip-rule="evenodd" d="M9 0.5C8.73478 0.5 8.48043 0.605357 8.29289 0.792893C8.10536 0.98043 8 1.23478 8 1.5V9C8 9.55229 8.44772 10 9 10H16.5C17.0523 10 17.5 9.55229 17.5 9C17.5 7.88376 17.2801 6.77846 16.853 5.74719C16.4258 4.71592 15.7997 3.77889 15.0104 2.98959C14.2211 2.20029 13.2841 1.57419 12.2528 1.14702C11.2215 0.719859 10.1162 0.5 9 0.5ZM10 8V2.57738C10.5095 2.65671 11.0089 2.79656 11.4874 2.99478C12.2761 3.32144 12.9926 3.80023 13.5962 4.40381C14.1998 5.00739 14.6786 5.72394 15.0052 6.51256C15.2034 6.99112 15.3433 7.49053 15.4226 8H10ZM6.39996 3.03904C6.90614 2.81815 7.13742 2.22873 6.91653 1.72255C6.69564 1.21636 6.10623 0.985082 5.60004 1.20597C4.32749 1.76129 3.21034 2.61989 2.34628 3.7067C1.48221 4.79351 0.897526 6.07544 0.643346 7.44041C0.389165 8.80539 0.473225 10.2118 0.888177 11.5368C1.30313 12.8618 2.03634 14.065 3.0237 15.0411C4.01107 16.0173 5.22253 16.7367 6.55216 17.1365C7.8818 17.5363 9.28913 17.6043 10.6511 17.3345C12.0131 17.0648 13.2883 16.4655 14.3651 15.5891C15.442 14.7127 16.2878 13.5858 16.8285 12.307C17.0436 11.7983 16.8056 11.2116 16.297 10.9965C15.7883 10.7814 15.2016 11.0194 14.9865 11.528C14.5729 12.506 13.9262 13.3677 13.1027 14.0379C12.2792 14.7081 11.3041 15.1664 10.2625 15.3726C9.22102 15.5789 8.14483 15.5269 7.12805 15.2212C6.11127 14.9155 5.18486 14.3653 4.42982 13.6189C3.67478 12.8724 3.11409 11.9523 2.79677 10.9391C2.47945 9.92588 2.41517 8.85036 2.60955 7.80655C2.80392 6.76275 3.25103 5.78245 3.91179 4.95136C4.57254 4.12027 5.42683 3.4637 6.39996 3.03904Z" fill="#C5D9ED"/>
</svg>
